X:1
T:Deh mira egli
T:Simone Molinaro Genovese
T:Source : Canzonette a tre voci---Libro secondo---Venetia---R.Amadino---1600. Editor : André Vierendeels (27/11/16).
T:Notes : Original clefs : C1, C1, C4 Editorial accidentals above the staff
T:Deh mira egli
T:©
T:©
T:©
T:©
T:©
C:Simone Molinaro Genovese
Z:©
%%score [ 1 2 3 ]
L:1/8
Q:1/4=119
M:4/4
K:F
V:1 treble nm="Soprano 1" snm="S 1"
V:2 treble nm="Soprano 2" snm="S 2"
V:3 treble-8 nm="Tenor" snm="T"
V:1
 F8 | A8 | G8 | G4 A2 B2 | c4 z2 c2 | c6 BA | G2 A2 =B2 c2- | c2 =B2 c4 | z2 c2 A2 B2 | G4 c4 | %10
w: Deh|mi-|ra|e- gli can-|to spun-|tar _ _|_ la ro- *|* * sa,|dal ver- de|suo mo-|
 d8 | c4 c2 B2 | A4 G4 | z2 G2 G2 A2 | B2 B2 A2 D2 | B4 A4 | G2 F2 F4- | F2 ED E4 | F8 | z8 | %20
w: de-|sta'e ver- gi-|nel- la,|che me- zo'a-|per- t'an- co- ra'e|me- zo'as-|co- * *||sa,||
 z2 F2 D2 C2 | D2 E2 F4- | F2 F2 G2 A2 | G2 F4 E2 | F4 c4 | A2 F2 A3 B | ccBA A2 AG | F2 FD F3 G | %28
w: quan- to si|mo- stra men|_ tan- to'è piu|bel- * *|la, ec-|co poi nu- do'il|sen gia bal- dan- zo- sa, dis-|pie- ga poi nu- do'il|
 AGAB c2 c=B | c4 B4 | A4 c4 | A2 F2 A3 B | ccc=B c2 GA | =B2 c4 B2 | c4 z2 G2- | GG A2 F4 | %36
w: sen gia bal- dan- zo- sa, dis|pie- *|ga, ec-|co poi nu- do'il|sen gia bal- dan- zo- sa, dis-|pie- * *|ga, ec-|* co poi lan-|
 E4 z2 E2 | F2 G2 A4 | G2 E2 D2 C2 | D8 | F4 E2 F2 | G2 A2 G4 | A4 c2 c2 | d2 cB c2 F2 | %44
w: gue e|non par- guel-|la, quel- la non|par|che de- si-|a- ta'in- an-|ti, fu da|mil- le don- zel- l'e|
 AB c4 =B2 | c8 | z8 | z8 | z4 A2 A2 | B2 AG A2 c2 | c2 A2 G4 | A8 |] %52
w: mil- le'a- man- *|ti,|||fu da|mil- le don- zel- l'e|mil- le'a- man-|ti.|
V:2
 z4 C4- | C4 F4- | F4 E2 D2 | E2 E2 F2 G2 | A2 A2 A4- | A2 GF E4- | E2 DC D2 E2 | D4 E4 | %8
w: Deh|_ mi-||ra e- gli can-|to spun- tar|_ _ _ _|* * * * la|ro- sa,|
 z2 G2 F2 F2 | E4 A4 | B8 | A4 A2 G2- | G2 ^F2 G2 D2 | E2 D2 _E4 | D4 F4- | F4 E4 | D6 C2 | B,8 | %18
w: dal ver- de|suo mo-|de-|sta ver- gi-|* nel- la, che|me- zo'a- per-|t'an- co-|* ra'e|me- zo'as-|co-|
 C4 C4 | F2 E2 F2 G2 | A4 z4 | z2 c2 A2 G2 | A2 B2 c2 c2- | cB A2 G4 | A8 | c4 A2 F2 | A3 B c2 c2 | %27
w: sa, quan-|to mo- * stra|men,|quan- to si|mo- stra men, tan-|* to'è piu bel-|la,|ec- co poi|nu- do'il sen gia|
 d6 d2 | c2 cB A2 GF | E2 DC D2 E2 | F2 c2 A2 F2 | A3 B cccB | A2 GF E2 DC | D2 E2 D4 | E4 z2 E2- | %35
w: bal- dan-|zo- sa, dis pie- ga, dis|pie- * * * *|ga, ec- co poi|nu- do'il sen bal- dan- zo-|sa, dis pie- * * *||ga ec-|
 EE E2 D4 |"^#" C4 z2 ^C2 | D2 E2 F4 | E2 G2 G2 ^F2 | G2 G2 F2 G2 | A4 G2 F2 | E2 F4 E2 | %42
w: * co poi lan-|gue e|non par- quel-|la, quel- la non|par che de- *|si- a- ta'in-|nan- * *|
 F4 A2 A2 | B2 AG A3 G | F2 E2 D4 | C4 C2 C2 | D2 CB, C2 F2 | F2 E2 D4 | C4 c2 c2 | d2 cB c2 A2 | %50
w: ti, fu da|mil- le don- zel- l'e|mil- le'a- man-|ti, fau da|mil- le don- zel- l'e|mil- le'a- man-|ti, fu da|mil- le don- zel- l'e|
 G2 F4 E2 | F8 |] %52
w: mil- le'a- man-|ti.|
V:3
 z4 F4 | F8 | c8 | c4 A2 G2 | F2 f2 f4- | f2 ed c4- | c2 BA G4- | G4 c4 | z2 c2 d2 B2 | c4 F4 | %10
w: Deh|mi-|ra|e- gli can-|to spun- tar|_ _ _ _|* la _ ro-|* sa,|dal ver- de|suo mo-|
 B8 | F4 F2 G2 | D4 G2 G2 | c2 =B2 c4 | G4 d4- | d4 c4 | B6 A2 | G8 | F4 F4 | D2 C2 D2 E2 | %20
w: de-|sta ver- gi-|nel- la, che|me- zo'a- per-|t'an- co-|* ra'e|me- zo'as-|co-|sa, quan-|to mo- stra men,|
 F2 F2 B2 A2 | B2 c2 d4- | d2 d2 e2 f2 | c8 | F8- | F8 | z4 f4 | d2 B2 d3 e | f4 f2 ed | c2 BA G4 | %30
w: quan- to mo- stra|men tan- to'è|_ piu bel- *||la|_|ec-|co poi nu- do'il|sen gia bal- dan-|zo- sa, dis- pie-|
 F8- | F8 | f2 ed c2 BA | G8 | c4 z2 C2- | CC C2 D4 | A4 z2 A2 |"^-natural" d2 c2 F4 | %38
w: ga|_|gia bal- dan- zo- sa, dis-|pie-|ga, ec|_ co po lan-|gue e|non par- quel-|
 c2 c2 B2 A2 | G4 B4 | A2 B2 c2 d2 | c8 | F8 | z8 | z8 | z4 A2 A2 | B2 AG A3 G | AB c4 =B2 | %48
w: la, quel- la non|par che|de- si- a- ta'in-|nan-|ti,|||fu da|mil- le don- zel- l'e|mi- le'a- man- *|
 c4 F2 F2 | B2 FG F3 F | E2 F2 C4 | F8 |] %52
w: ti, fau da|mil- le don- zel- l'e|mil- le'a- man-|ti|

